X: 3
T: Paddy Taylor's
R: reel
M: 4/4
L: 1/8
K: Dmaj
FEDF A3F | GEcE dEcE | FEDF ABAF |1 GEcE EDD2 :|2 GEcE EDDB ||Addc d3A | (3Bcd ef gfed | Addc dfed | =cAGE EDDB |Addc d3A | (3Bcd ef g2fg | afge d2cA | (3Bcd AG FDDE ||F3G A2dG | GGdG GBAG | FEFG Add=c | (3ABA GE EDD2 :||


Tune 578	Setting 578

